X: 1
T: My Maryanne
D: Green Linnet THE IRISH TRADITION "The Times We've Had" GL 1063
B: O'Neill's THE DANCE MUSIC OF IRELAND #471
B: O'Neill's MUSIC OF IRELAND #___
M: 4/4
L:1/8
K: D
|: d2dc dBAd | Beed edBc | d2dc dBAF | GBAF E2D2 | d2dc dBAD | Beed edBc | d3c  dBAF | GBAG FDD2 :|
|: faaf d3e  | fbba bfde | f2gf e2fe | dBAB d3e  | faaf d3e  | fbba bfde | f2gf e2fe | dBAB d4   :|
